src/main/resources/icons/AllIcons/general/notificationWarning_dark.svg

<!-- Copyright 2000-2021 JetBrains s.r.o. Use of this source code is governed by the Apache 2.0 license that can be found in the LICENSE file. -->
<svg xmlns="http://www.w3.org/2000/svg" width="24" height="24" viewBox="0 0 24 24">
  <path fill="#F0A732" fill-rule="evenodd" d="M12,2 L23,21 L1,21 L12,2 Z M13.5,19 L13.5,16 L10.5,16 L10.5,19 L13.5,19 Z M13.5,14 L13.5,8 L10.5,8 L10.5,14 L13.5,14 Z"/>
</svg>

<svg xmlns="http://www.w3.org/2000/svg" width="24" height="24" viewBox="0 0 24 24"><rect id="frame" width="24" height="24" fill="none"/><path fill="#F0A732" fill-rule="evenodd" d="M12 2l11 19H1L12 2zm1.5 17v-3h-3v3h3zm0-5V8h-3v6h3z"/></svg>
